branches/nugui/src/gui/icons/traj_view.svg

<?xml version="1.0" encoding="UTF-8" standalone="no"?>
<!-- Created with Inkscape (http://www.inkscape.org/) -->

<svg
   xmlns:dc="http://purl.org/dc/elements/1.1/"
   xmlns:cc="http://creativecommons.org/ns#"
   xmlns:rdf="http://www.w3.org/1999/02/22-rdf-syntax-ns#"
   xmlns:svg="http://www.w3.org/2000/svg"
   xmlns="http://www.w3.org/2000/svg"
   xmlns:xlink="http://www.w3.org/1999/xlink"
   xmlns:inkscape="http://www.inkscape.org/namespaces/inkscape"
   version="1.0"
   width="100"
   height="100"
   id="svg2">
  <metadata
     id="metadata87">
    <rdf:RDF>
      <cc:Work
         rdf:about="">
        <dc:format>image/svg+xml</dc:format>
        <dc:type
           rdf:resource="http://purl.org/dc/dcmitype/StillImage" />
      </cc:Work>
    </rdf:RDF>
  </metadata>
  <defs
     id="defs4">
    <linearGradient
       id="linearGradient3384">
      <stop
         id="stop3386"
         style="stop-color:#ff0000;stop-opacity:1"
         offset="0" />
      <stop
         id="stop3388"
         style="stop-color:#000000;stop-opacity:1"
         offset="1" />
    </linearGradient>
    <linearGradient
       id="linearGradient3252">
      <stop
         id="stop3254"
         style="stop-color:#ffffff;stop-opacity:1"
         offset="0" />
      <stop
         id="stop3256"
         style="stop-color:#ff0000;stop-opacity:0"
         offset="1" />
    </linearGradient>
    <linearGradient
       x1="25.398125"
       y1="63.345894"
       x2="90.625114"
       y2="63.345894"
       id="linearGradient3219"
       xlink:href="#linearGradient3384"
       gradientUnits="userSpaceOnUse"
       gradientTransform="matrix(0.6454758,0.6454758,-0.6454758,0.6454758,54.259471,-32.414977)" />
    <radialGradient
       cx="58.01162"
       cy="63.345894"
       r="33.113495"
       fx="58.01162"
       fy="63.345894"
       id="radialGradient3221"
       xlink:href="#linearGradient3252"
       gradientUnits="userSpaceOnUse"
       gradientTransform="matrix(0.5123554,0,0,0.5123554,10.036276,2.1773356)" />
    <linearGradient
       x1="25.398125"
       y1="63.345894"
       x2="90.625114"
       y2="63.345894"
       id="linearGradient3257"
       xlink:href="#linearGradient3384"
       gradientUnits="userSpaceOnUse"
       gradientTransform="matrix(0.6454758,0.6454758,-0.6454758,0.6454758,54.259471,-32.414977)" />
    <radialGradient
       cx="58.01162"
       cy="63.345894"
       r="33.113495"
       fx="58.01162"
       fy="63.345894"
       id="radialGradient3259"
       xlink:href="#linearGradient3252"
       gradientUnits="userSpaceOnUse"
       gradientTransform="matrix(0.5123554,0,0,0.5123554,10.036276,2.1773356)" />
    <linearGradient
       x1="25.398125"
       y1="63.345894"
       x2="90.625114"
       y2="63.345894"
       id="linearGradient3116"
       xlink:href="#linearGradient3384"
       gradientUnits="userSpaceOnUse"
       gradientTransform="matrix(0.6454758,0.6454758,-0.6454758,0.6454758,54.259471,-32.414977)" />
    <radialGradient
       cx="58.01162"
       cy="63.345894"
       r="33.113495"
       fx="58.01162"
       fy="63.345894"
       id="radialGradient3118"
       xlink:href="#linearGradient3252"
       gradientUnits="userSpaceOnUse"
       gradientTransform="matrix(0.5123554,0,0,0.5123554,10.036276,2.1773356)" />
  </defs>
  <rect
     width="95.421112"
     height="51.986679"
     x="4.3234658"
     y="27.619064"
     id="rect3231"
     style="fill:#989696;fill-opacity:1;fill-rule:evenodd;stroke:none" />
  <rect
     width="98.027168"
     height="52.334156"
     rx="0"
     ry="0"
     x="1.4814345"
     y="24.033932"
     id="rect2408"
     style="fill:#000000;fill-opacity:1;fill-rule:evenodd;stroke:#000000;stroke-width:1;stroke-linecap:butt;stroke-linejoin:miter;stroke-miterlimit:4;stroke-opacity:1;stroke-dasharray:none" />
  <rect
     width="89.624107"
     height="43.409885"
     x="5.6583457"
     y="28.496065"
     id="rect3188"
     style="fill:#ffffff;fill-opacity:1;fill-rule:evenodd;stroke:#000000;stroke-width:0.88997883;stroke-linecap:butt;stroke-linejoin:miter;stroke-miterlimit:4;stroke-opacity:1;stroke-dasharray:none" />
  <rect
     width="4.826767"
     height="52.076313"
     x="37.754673"
     y="24.162849"
     id="rect2412"
     style="fill:#000000;fill-opacity:1;fill-rule:evenodd;stroke:#000000;stroke-width:0.99037617;stroke-linecap:butt;stroke-linejoin:miter;stroke-miterlimit:4;stroke-opacity:1;stroke-dasharray:none" />
  <rect
     width="4.826767"
     height="52.076313"
     x="74.069"
     y="24.162849"
     id="rect2414"
     style="fill:#000000;fill-opacity:1;fill-rule:evenodd;stroke:#000000;stroke-width:0.99037617;stroke-linecap:butt;stroke-linejoin:miter;stroke-miterlimit:4;stroke-opacity:1;stroke-dasharray:none" />
  <g
     transform="translate(0.49863332,-28.123385)"
     id="g3190">
    <path
       d="m 32.357643,77.450556 c 8.54e-4,4.878525 -3.953732,8.833804 -8.832257,8.833804 -4.878525,0 -8.833111,-3.955279 -8.832257,-8.833804 -8.54e-4,-4.878525 3.953732,-8.833804 8.832257,-8.833804 4.878525,0 8.833111,3.955279 8.832257,8.833804 z"
       inkscape:connector-curvature="0"
       id="path3289"
       style="fill:#282828;fill-opacity:1;fill-rule:evenodd;stroke:none" />
    <use
       transform="matrix(0.4676798,0,0,0.4676798,4.3954852,48.700837)"
       id="use2393"
       style="fill:#282828;fill-opacity:1"
       x="0"
       y="0"
       width="100"
       height="100"
       xlink:href="#path3289" />
    <g
       transform="matrix(0.2966739,0,0,0.2966739,7.5970587,62.707097)"
       id="g2386">
      <path
         d="m 80.278556,46.028995 c 0.0029,16.444064 -13.326861,29.776139 -29.770926,29.776139 -16.444064,0 -29.773803,-13.332075 -29.770924,-29.776139 -0.0029,-16.444064 13.32686,-29.776139 29.770924,-29.776139 16.444065,0 29.773805,13.332075 29.770926,29.776139 z"
         inkscape:connector-curvature="0"
         id="path2277"
         style="fill:#ff0000;fill-rule:evenodd;stroke:#000000;stroke-width:0.91284072px;stroke-linecap:butt;stroke-linejoin:miter;stroke-opacity:1" />
      <path
         d="M 71.867547,66.969583 C 60.241875,78.599327 41.389126,78.600978 29.761417,66.973269 18.133709,55.345561 18.13536,36.492812 29.765104,24.86714 c 11.625673,-11.629744 30.478421,-11.631396 42.10613,-0.0037 11.627709,11.627709 11.626057,30.480457 -0.0037,42.10613 z"
         inkscape:connector-curvature="0"
         id="path3262"
         style="opacity:0.71739131;fill:url(#linearGradient3116);fill-opacity:1;fill-rule:evenodd;stroke:none" />
      <path
         d="m 56.468543,34.632946 c 0.0016,9.229656 -7.480045,16.712627 -16.709701,16.712627 -9.229655,0 -16.711315,-7.482971 -16.7097,-16.712627 -0.0016,-9.229655 7.480045,-16.712626 16.7097,-16.712626 9.229656,0 16.711317,7.482971 16.709701,16.712626 z"
         inkscape:connector-curvature="0"
         id="path2279"
         style="fill:url(#radialGradient3118);fill-opacity:1;fill-rule:evenodd;stroke:none" />
    </g>
    <use
       transform="matrix(0.4553966,0,0,0.4553966,4.4983481,49.679336)"
       id="use2391"
       x="0"
       y="0"
       width="100"
       height="100"
       xlink:href="#g2386" />
  </g>
  <g
     transform="matrix(0.9038262,0.4278997,-0.4278997,0.9038262,72.964903,-29.708471)"
     id="g3203">
    <path
       d="m 32.357643,77.450556 c 8.54e-4,4.878525 -3.953732,8.833804 -8.832257,8.833804 -4.878525,0 -8.833111,-3.955279 -8.832257,-8.833804 -8.54e-4,-4.878525 3.953732,-8.833804 8.832257,-8.833804 4.878525,0 8.833111,3.955279 8.832257,8.833804 z"
       inkscape:connector-curvature="0"
       id="path3205"
       style="fill:#282828;fill-opacity:1;fill-rule:evenodd;stroke:none" />
    <use
       transform="matrix(0.4676798,0,0,0.4676798,4.3954852,48.700837)"
       id="use3207"
       style="fill:#282828;fill-opacity:1"
       x="0"
       y="0"
       width="100"
       height="100"
       xlink:href="#path3289" />
    <g
       transform="matrix(0.2966739,0,0,0.2966739,7.5970587,62.707097)"
       id="g3209">
      <path
         d="m 80.278556,46.028995 c 0.0029,16.444064 -13.326861,29.776139 -29.770926,29.776139 -16.444064,0 -29.773803,-13.332075 -29.770924,-29.776139 -0.0029,-16.444064 13.32686,-29.776139 29.770924,-29.776139 16.444065,0 29.773805,13.332075 29.770926,29.776139 z"
         inkscape:connector-curvature="0"
         id="path3211"
         style="fill:#ff0000;fill-rule:evenodd;stroke:#000000;stroke-width:0.91284072px;stroke-linecap:butt;stroke-linejoin:miter;stroke-opacity:1" />
      <path
         d="M 71.867547,66.969583 C 60.241875,78.599327 41.389126,78.600978 29.761417,66.973269 18.133709,55.345561 18.13536,36.492812 29.765104,24.86714 c 11.625673,-11.629744 30.478421,-11.631396 42.10613,-0.0037 11.627709,11.627709 11.626057,30.480457 -0.0037,42.10613 z"
         inkscape:connector-curvature="0"
         id="path3213"
         style="opacity:0.71739131;fill:url(#linearGradient3219);fill-opacity:1;fill-rule:evenodd;stroke:none" />
      <path
         d="m 56.468543,34.632946 c 0.0016,9.229656 -7.480045,16.712627 -16.709701,16.712627 -9.229655,0 -16.711315,-7.482971 -16.7097,-16.712627 -0.0016,-9.229655 7.480045,-16.712626 16.7097,-16.712626 9.229656,0 16.711317,7.482971 16.709701,16.712626 z"
         inkscape:connector-curvature="0"
         id="path3215"
         style="fill:url(#radialGradient3221);fill-opacity:1;fill-rule:evenodd;stroke:none" />
    </g>
    <use
       transform="matrix(0.4553966,0,0,0.4553966,4.4983481,49.679336)"
       id="use3217"
       x="0"
       y="0"
       width="100"
       height="100"
       xlink:href="#g2386" />
  </g>
  <g
     transform="matrix(0.5244703,0.8514287,-0.8514287,0.5244703,154.09032,-9.2546463)"
     id="g3241">
    <path
       d="m 32.357643,77.450556 c 8.54e-4,4.878525 -3.953732,8.833804 -8.832257,8.833804 -4.878525,0 -8.833111,-3.955279 -8.832257,-8.833804 -8.54e-4,-4.878525 3.953732,-8.833804 8.832257,-8.833804 4.878525,0 8.833111,3.955279 8.832257,8.833804 z"
       inkscape:connector-curvature="0"
       id="path3243"
       style="fill:#282828;fill-opacity:1;fill-rule:evenodd;stroke:none" />
    <use
       transform="matrix(0.4676798,0,0,0.4676798,4.3954852,48.700837)"
       id="use3245"
       style="fill:#282828;fill-opacity:1"
       x="0"
       y="0"
       width="100"
       height="100"
       xlink:href="#path3289" />
    <g
       transform="matrix(0.2966739,0,0,0.2966739,7.5970587,62.707097)"
       id="g3247">
      <path
         d="m 80.278556,46.028995 c 0.0029,16.444064 -13.326861,29.776139 -29.770926,29.776139 -16.444064,0 -29.773803,-13.332075 -29.770924,-29.776139 -0.0029,-16.444064 13.32686,-29.776139 29.770924,-29.776139 16.444065,0 29.773805,13.332075 29.770926,29.776139 z"
         inkscape:connector-curvature="0"
         id="path3249"
         style="fill:#ff0000;fill-rule:evenodd;stroke:#000000;stroke-width:0.91284072px;stroke-linecap:butt;stroke-linejoin:miter;stroke-opacity:1" />
      <path
         d="M 71.867547,66.969583 C 60.241875,78.599327 41.389126,78.600978 29.761417,66.973269 18.133709,55.345561 18.13536,36.492812 29.765104,24.86714 c 11.625673,-11.629744 30.478421,-11.631396 42.10613,-0.0037 11.627709,11.627709 11.626057,30.480457 -0.0037,42.10613 z"
         inkscape:connector-curvature="0"
         id="path3251"
         style="opacity:0.71739131;fill:url(#linearGradient3257);fill-opacity:1;fill-rule:evenodd;stroke:none" />
      <path
         d="m 56.468543,34.632946 c 0.0016,9.229656 -7.480045,16.712627 -16.709701,16.712627 -9.229655,0 -16.711315,-7.482971 -16.7097,-16.712627 -0.0016,-9.229655 7.480045,-16.712626 16.7097,-16.712626 9.229656,0 16.711317,7.482971 16.709701,16.712626 z"
         inkscape:connector-curvature="0"
         id="path3253"
         style="fill:url(#radialGradient3259);fill-opacity:1;fill-rule:evenodd;stroke:none" />
    </g>
    <use
       transform="matrix(0.4553966,0,0,0.4553966,4.4983481,49.679336)"
       id="use3255"
       x="0"
       y="0"
       width="100"
       height="100"
       xlink:href="#g2386" />
  </g>
</svg>

<?xml version="1.0" encoding="UTF-8" standalone="no"?>
<!-- Created with Inkscape (http://www.inkscape.org/) -->
<svg
   xmlns:svg="http://www.w3.org/2000/svg"
   xmlns="http://www.w3.org/2000/svg"
   xmlns:xlink="http://www.w3.org/1999/xlink"
   version="1.0"
   width="100"
   height="100"
   id="svg2">
  <defs
     id="defs4">
    <linearGradient
       id="linearGradient3384">
      <stop
         id="stop3386"
         style="stop-color:#ff0000;stop-opacity:1"
         offset="0" />
      <stop
         id="stop3388"
         style="stop-color:#000000;stop-opacity:1"
         offset="1" />
    </linearGradient>
    <linearGradient
       id="linearGradient3252">
      <stop
         id="stop3254"
         style="stop-color:#ffffff;stop-opacity:1"
         offset="0" />
      <stop
         id="stop3256"
         style="stop-color:#ff0000;stop-opacity:0"
         offset="1" />
    </linearGradient>
    <linearGradient
       x1="25.398125"
       y1="63.345894"
       x2="90.625114"
       y2="63.345894"
       id="linearGradient3219"
       xlink:href="#linearGradient3384"
       gradientUnits="userSpaceOnUse"
       gradientTransform="matrix(0.6454758,0.6454758,-0.6454758,0.6454758,54.259471,-32.414977)" />
    <radialGradient
       cx="58.01162"
       cy="63.345894"
       r="33.113495"
       fx="58.01162"
       fy="63.345894"
       id="radialGradient3221"
       xlink:href="#linearGradient3252"
       gradientUnits="userSpaceOnUse"
       gradientTransform="matrix(0.5123554,0,0,0.5123554,10.036276,2.1773356)" />
    <linearGradient
       x1="25.398125"
       y1="63.345894"
       x2="90.625114"
       y2="63.345894"
       id="linearGradient3257"
       xlink:href="#linearGradient3384"
       gradientUnits="userSpaceOnUse"
       gradientTransform="matrix(0.6454758,0.6454758,-0.6454758,0.6454758,54.259471,-32.414977)" />
    <radialGradient
       cx="58.01162"
       cy="63.345894"
       r="33.113495"
       fx="58.01162"
       fy="63.345894"
       id="radialGradient3259"
       xlink:href="#linearGradient3252"
       gradientUnits="userSpaceOnUse"
       gradientTransform="matrix(0.5123554,0,0,0.5123554,10.036276,2.1773356)" />
    <linearGradient
       x1="25.398125"
       y1="63.345894"
       x2="90.625114"
       y2="63.345894"
       id="linearGradient3116"
       xlink:href="#linearGradient3384"
       gradientUnits="userSpaceOnUse"
       gradientTransform="matrix(0.6454758,0.6454758,-0.6454758,0.6454758,54.259471,-32.414977)" />
    <radialGradient
       cx="58.01162"
       cy="63.345894"
       r="33.113495"
       fx="58.01162"
       fy="63.345894"
       id="radialGradient3118"
       xlink:href="#linearGradient3252"
       gradientUnits="userSpaceOnUse"
       gradientTransform="matrix(0.5123554,0,0,0.5123554,10.036276,2.1773356)" />
  </defs>
  <rect
     width="95.421112"
     height="51.986679"
     x="4.3234658"
     y="27.619064"
     id="rect3231"
     style="fill:#989696;fill-opacity:1;fill-rule:evenodd;stroke:none" />
  <rect
     width="98.027168"
     height="52.334156"
     rx="0"
     ry="0"
     x="1.4814345"
     y="24.033932"
     id="rect2408"
     style="fill:#000000;fill-opacity:1;fill-rule:evenodd;stroke:#000000;stroke-width:1;stroke-linecap:butt;stroke-linejoin:miter;stroke-miterlimit:4;stroke-dasharray:none;stroke-opacity:1" />
  <rect
     width="89.624107"
     height="43.409885"
     x="5.6583457"
     y="28.496065"
     id="rect3188"
     style="fill:#ffffff;fill-opacity:1;fill-rule:evenodd;stroke:#000000;stroke-width:0.88997883;stroke-linecap:butt;stroke-linejoin:miter;stroke-miterlimit:4;stroke-dasharray:none;stroke-opacity:1" />
  <rect
     width="4.826767"
     height="52.076313"
     x="37.754673"
     y="24.162849"
     id="rect2412"
     style="fill:#000000;fill-opacity:1;fill-rule:evenodd;stroke:#000000;stroke-width:0.99037617;stroke-linecap:butt;stroke-linejoin:miter;stroke-miterlimit:4;stroke-dasharray:none;stroke-opacity:1" />
  <rect
     width="4.826767"
     height="52.076313"
     x="74.069"
     y="24.162849"
     id="rect2414"
     style="fill:#000000;fill-opacity:1;fill-rule:evenodd;stroke:#000000;stroke-width:0.99037617;stroke-linecap:butt;stroke-linejoin:miter;stroke-miterlimit:4;stroke-dasharray:none;stroke-opacity:1" />
  <g
     transform="translate(0.4986333,-28.123385)"
     id="g3190">
    <path
       d="M 32.357643,77.450556 C 32.358497,82.329081 28.403911,86.28436 23.525386,86.28436 C 18.646861,86.28436 14.692275,82.329081 14.693129,77.450556 C 14.692275,72.572031 18.646861,68.616752 23.525386,68.616752 C 28.403911,68.616752 32.358497,72.572031 32.357643,77.450556 z"
       id="path3289"
       style="fill:#282828;fill-opacity:1;fill-rule:evenodd;stroke:none" />
    <use
       transform="matrix(0.4676798,0,0,0.4676798,4.3954852,48.700837)"
       id="use2393"
       style="fill:#282828;fill-opacity:1"
       x="0"
       y="0"
       width="100"
       height="100"
       xlink:href="#path3289" />
    <g
       transform="matrix(0.2966739,0,0,0.2966739,7.5970587,62.707097)"
       id="g2386">
      <path
         d="M 80.278556,46.028995 C 80.281456,62.473059 66.951695,75.805134 50.50763,75.805134 C 34.063566,75.805134 20.733827,62.473059 20.736706,46.028995 C 20.733806,29.584931 34.063566,16.252856 50.50763,16.252856 C 66.951695,16.252856 80.281435,29.584931 80.278556,46.028995 z"
         id="path2277"
         style="fill:#ff0000;fill-rule:evenodd;stroke:#000000;stroke-width:0.91284072px;stroke-linecap:butt;stroke-linejoin:miter;stroke-opacity:1" />
      <path
         d="M 71.867547,66.969583 C 60.241875,78.599327 41.389126,78.600978 29.761417,66.973269 C 18.133709,55.345561 18.13536,36.492812 29.765104,24.86714 C 41.390777,13.237396 60.243525,13.235744 71.871234,24.86344 C 83.498943,36.491149 83.497291,55.343897 71.867534,66.96957 L 71.867547,66.969583 z"
         id="path3262"
         style="opacity:0.71739131;fill:url(#linearGradient3116);fill-opacity:1;fill-rule:evenodd;stroke:none" />
      <path
         d="M 56.468543,34.632946 C 56.470143,43.862602 48.988498,51.345573 39.758842,51.345573 C 30.529187,51.345573 23.047527,43.862602 23.049142,34.632946 C 23.047542,25.403291 30.529187,17.92032 39.758842,17.92032 C 48.988498,17.92032 56.470159,25.403291 56.468543,34.632946 L 56.468543,34.632946 z"
         id="path2279"
         style="fill:url(#radialGradient3118);fill-opacity:1;fill-rule:evenodd;stroke:none" />
    </g>
    <use
       transform="matrix(0.4553966,0,0,0.4553966,4.4983481,49.679336)"
       id="use2391"
       x="0"
       y="0"
       width="100"
       height="100"
       xlink:href="#g2386" />
  </g>
  <g
     transform="matrix(0.9038262,0.4278997,-0.4278997,0.9038262,72.964903,-29.708471)"
     id="g3203">
    <path
       d="M 32.357643,77.450556 C 32.358497,82.329081 28.403911,86.28436 23.525386,86.28436 C 18.646861,86.28436 14.692275,82.329081 14.693129,77.450556 C 14.692275,72.572031 18.646861,68.616752 23.525386,68.616752 C 28.403911,68.616752 32.358497,72.572031 32.357643,77.450556 z"
       id="path3205"
       style="fill:#282828;fill-opacity:1;fill-rule:evenodd;stroke:none" />
    <use
       transform="matrix(0.4676798,0,0,0.4676798,4.3954852,48.700837)"
       id="use3207"
       style="fill:#282828;fill-opacity:1"
       x="0"
       y="0"
       width="100"
       height="100"
       xlink:href="#path3289" />
    <g
       transform="matrix(0.2966739,0,0,0.2966739,7.5970587,62.707097)"
       id="g3209">
      <path
         d="M 80.278556,46.028995 C 80.281456,62.473059 66.951695,75.805134 50.50763,75.805134 C 34.063566,75.805134 20.733827,62.473059 20.736706,46.028995 C 20.733806,29.584931 34.063566,16.252856 50.50763,16.252856 C 66.951695,16.252856 80.281435,29.584931 80.278556,46.028995 z"
         id="path3211"
         style="fill:#ff0000;fill-rule:evenodd;stroke:#000000;stroke-width:0.91284072px;stroke-linecap:butt;stroke-linejoin:miter;stroke-opacity:1" />
      <path
         d="M 71.867547,66.969583 C 60.241875,78.599327 41.389126,78.600978 29.761417,66.973269 C 18.133709,55.345561 18.13536,36.492812 29.765104,24.86714 C 41.390777,13.237396 60.243525,13.235744 71.871234,24.86344 C 83.498943,36.491149 83.497291,55.343897 71.867534,66.96957 L 71.867547,66.969583 z"
         id="path3213"
         style="opacity:0.71739131;fill:url(#linearGradient3219);fill-opacity:1;fill-rule:evenodd;stroke:none" />
      <path
         d="M 56.468543,34.632946 C 56.470143,43.862602 48.988498,51.345573 39.758842,51.345573 C 30.529187,51.345573 23.047527,43.862602 23.049142,34.632946 C 23.047542,25.403291 30.529187,17.92032 39.758842,17.92032 C 48.988498,17.92032 56.470159,25.403291 56.468543,34.632946 L 56.468543,34.632946 z"
         id="path3215"
         style="fill:url(#radialGradient3221);fill-opacity:1;fill-rule:evenodd;stroke:none" />
    </g>
    <use
       transform="matrix(0.4553966,0,0,0.4553966,4.4983481,49.679336)"
       id="use3217"
       x="0"
       y="0"
       width="100"
       height="100"
       xlink:href="#g2386" />
  </g>
  <g
     transform="matrix(0.5244703,0.8514287,-0.8514287,0.5244703,154.09032,-9.2546463)"
     id="g3241">
    <path
       d="M 32.357643,77.450556 C 32.358497,82.329081 28.403911,86.28436 23.525386,86.28436 C 18.646861,86.28436 14.692275,82.329081 14.693129,77.450556 C 14.692275,72.572031 18.646861,68.616752 23.525386,68.616752 C 28.403911,68.616752 32.358497,72.572031 32.357643,77.450556 z"
       id="path3243"
       style="fill:#282828;fill-opacity:1;fill-rule:evenodd;stroke:none" />
    <use
       transform="matrix(0.4676798,0,0,0.4676798,4.3954852,48.700837)"
       id="use3245"
       style="fill:#282828;fill-opacity:1"
       x="0"
       y="0"
       width="100"
       height="100"
       xlink:href="#path3289" />
    <g
       transform="matrix(0.2966739,0,0,0.2966739,7.5970587,62.707097)"
       id="g3247">
      <path
         d="M 80.278556,46.028995 C 80.281456,62.473059 66.951695,75.805134 50.50763,75.805134 C 34.063566,75.805134 20.733827,62.473059 20.736706,46.028995 C 20.733806,29.584931 34.063566,16.252856 50.50763,16.252856 C 66.951695,16.252856 80.281435,29.584931 80.278556,46.028995 z"
         id="path3249"
         style="fill:#ff0000;fill-rule:evenodd;stroke:#000000;stroke-width:0.91284072px;stroke-linecap:butt;stroke-linejoin:miter;stroke-opacity:1" />
      <path
         d="M 71.867547,66.969583 C 60.241875,78.599327 41.389126,78.600978 29.761417,66.973269 C 18.133709,55.345561 18.13536,36.492812 29.765104,24.86714 C 41.390777,13.237396 60.243525,13.235744 71.871234,24.86344 C 83.498943,36.491149 83.497291,55.343897 71.867534,66.96957 L 71.867547,66.969583 z"
         id="path3251"
         style="opacity:0.71739131;fill:url(#linearGradient3257);fill-opacity:1;fill-rule:evenodd;stroke:none" />
      <path
         d="M 56.468543,34.632946 C 56.470143,43.862602 48.988498,51.345573 39.758842,51.345573 C 30.529187,51.345573 23.047527,43.862602 23.049142,34.632946 C 23.047542,25.403291 30.529187,17.92032 39.758842,17.92032 C 48.988498,17.92032 56.470159,25.403291 56.468543,34.632946 L 56.468543,34.632946 z"
         id="path3253"
         style="fill:url(#radialGradient3259);fill-opacity:1;fill-rule:evenodd;stroke:none" />
    </g>
    <use
       transform="matrix(0.4553966,0,0,0.4553966,4.4983481,49.679336)"
       id="use3255"
       x="0"
       y="0"
       width="100"
       height="100"
       xlink:href="#g2386" />
  </g>
</svg>
